icons/template/trophy.svg

<svg id="SvgjsSvg1047" width="288" height="288" xmlns="http://www.w3.org/2000/svg" version="1.1" xmlns:xlink="http://www.w3.org/1999/xlink" xmlns:svgjs="http://svgjs.com/svgjs"><defs id="SvgjsDefs1048"></defs><g id="SvgjsG1049"><svg xmlns="http://www.w3.org/2000/svg" fill="none" viewBox="0 0 24 24" width="288" height="288"><path fill="#6246ea" fill-rule="evenodd" d="M13 15.9c2.2822-.4633 4-2.481 4-4.9V4H7v7c0 2.419 1.71776 4.4367 4 4.9V18H9v2h6v-2h-2v-2.1zM9 6h6v5c0 1.6569-1.3431 3-3 3s-3-1.3431-3-3V6z" clip-rule="evenodd" class="colorcurrentColor svgShape"></path><path fill="#6246ea" d="M18 6h2v5h-2V6zM6 6H4v5h2V6z" class="colorcurrentColor svgShape"></path></svg></g></svg>

<svg
  width="24"
  height="24"
  viewBox="0 0 24 24"
  fill="none"
  xmlns="http://www.w3.org/2000/svg"
>
  <path
    fill-rule="evenodd"
    clip-rule="evenodd"
    d="M13 15.9C15.2822 15.4367 17 13.419 17 11V4H7V11C7 13.419 8.71776 15.4367 11 15.9V18H9V20H15V18H13V15.9ZM9 6H15V11C15 12.6569 13.6569 14 12 14C10.3431 14 9 12.6569 9 11V6Z"
    fill="currentColor"
  />
  <path d="M18 6H20V11H18V6Z" fill="currentColor" />
  <path d="M6 6H4V11H6V6Z" fill="currentColor" />
</svg>
